X:1
T:I trust O Christ in You alone
T:Allein zu dir harmonized JSBach
T:I trust O Christ in You alone
T:Copyright © 2017 by The Choral Public Domain Library. Edition may be freely distributed, duplicated, performed or recorded.
T:Copyright © 2017 by The Choral Public Domain Library. Edition may be freely distributed, duplicated, performed or recorded.
T:Copyright © 2017 by The Choral Public Domain Library. Edition may be freely distributed, duplicated, performed or recorded.
T:Copyright © 2017 by The Choral Public Domain Library. Edition may be freely distributed, duplicated, performed or recorded.
T:Copyright © 2017 by The Choral Public Domain Library. Edition may be freely distributed, duplicated, performed or recorded.
C:Allein zu dir
C:harmonized JSBach
Z:Copyright © 2017 by The Choral Public Domain Library. Edition may be freely distributed, duplicated, performed or recorded.
%%score { ( 1 3 ) | ( 2 4 ) }
L:1/8
Q:1/4=80
M:4/4
K:G
V:1 treble nm="Choir" snm="Choir"
V:3 treble 
V:2 bass 
V:4 bass 
V:1
"^E‹" [B,G]2 |"^B‹" [B,D]2"^A‹" [CE]2"^G" [DG]2 [DB]2 |"^D" (A2"^E‹""^E‹6" G4"^D" F2 | %3
w: 1.~~~I|trust O Christ in|* * a-|
w: 2.~~~My|sin and guilt are|pla- * guing|
w: 3.~~Con-|firm in us your|Gos- * pel,|
"^G" [DG]4 z2 [DB]2 |"^D" [DA]2"^E‹" [B,G]2"^B‹" [B,F]2 [B,D]2 | %5
w: lone; no|earth- ly hope a-|
w: me; Oh,|grant me true con-|
w: Lord, your|pro- mise of sal-|
"^A‹" E2"^A‹6" A2"^E‹" G2"^B7" F2) |"^E" [B,E]4 z2"^E‹" [B,=G]2 | %7
w: |me. You|
w: tri- * * *|tion. And|
w: va- * * *|tion; and|
"^B‹" [B,D]2"^A‹" [CE]2"^G" [DG]2 [DB]2 |"^D" (A2"^E‹""^E‹6" G4"^D" F2 |"^G" [DG]4 z2 [DB]2 | %10
w: will not see me|o- * ver-|thrown, when|
w: by your death u-|* * the|tree, your|
w: make us keen to|* * your|Word and|
"^D" [DA]2"^E‹" [B,G]2"^B‹" [B,F]2 [B,D]2 |"^A‹" E2"^A‹6" A2"^E‹" G2"^B7" F2) | %12
w: Sa- tan's host as-||
w: par- don and re-|mis- * * *|
w: fol- low our vo-|ca- * * *|
"^E" [B,E]4 z2"^E‹" [EB]2 |"^A‹" [Ec]2"^D" [DA]2"^G" [DB]2"^E‹" [B,G]2 | %14
w: me. No|hu- man strength, no|
w: sion. Be-|fore the Fa- ther's|
w: tion: To|spend our lives in|
"^A‹" [EA]2"^E7" [DB]2"^A" [^CE]2"^E‹" [EB]2 |"^A‹" [Ec]2"^D" [DA]2"^G" [DB]2"^E‹" [B,G]2 | %16
w: earth- ly power can|see me thru the|
w: throne a- bove, re-|call your match- less|
w: love for you, to|bear each oth- er's|
"^A‹" [EA]2"^E7" [DB]2"^A" [^CE]4 | z2"^G" [DG]2"^D" [DF]2"^E‹" [B,E]2 | %18
w: e- vil hour,|for you a-|
w: deed of love.|That he may|
w: bur- dens too.|And then at|
"^B‹" [B,D]2"^E" [B,E]2"^A‹" [A,C]2"^A‹6" [F,C]2 |"^E" [^G,B,]4 z2"^C" [=G,E]2 | %20
w: lone my strength re-|new. I|
w: lift my dread- ful|load. O|
w: last, when death shall|loom, O|
"^D7" (D2"^G""^A‹7" G4"^D7" F2 |"^G" [B,G]4 z2 D2 |"^A7" [^CE]2"^B7" [^DF]2"^E‹" [EG]2"^G" [=DB]2 | %23
w: * * to|you! I|trust O Lord your|
w: * * of|God! I|plead the grace your|
w: Sav- * ior|come! and|bear your loved ones|
"^A7" A2"^E‹" G2)"^F©7""^B7" F4 |"^E" [B,E]4 z2 |] %25
w: pro- * *|true.|
w: death _ be-|stowed.|
w: safe- * *|home.|
V:2
 [E,,E,]2 | [B,,F,]2 [A,,A,]2 [G,,B,]2 [G,,G,]2 | [D,F,]2 [E,G,]4 [D,A,]2 | [G,,B,]4 z2 [G,,G,]2 | %4
 [D,F,]2 E,2 [B,,D,]2 [B,,F,]2 | A,2 C2 B,3 A, | [E,,^G,]4 z2 [E,,E,]2 | %7
 [B,,F,]2 [A,,A,]2 [G,,B,]2 [G,,G,]2 | [D,F,]2 [E,G,]4 [D,A,]2 | [G,,B,]4 z2 [G,,G,]2 | %10
 [D,F,]2 E,2 [B,,D,]2 [B,,F,]2 | A,2 C2 B,3 A, | [E,,^G,]4 z2 [E,=G,]2 | %13
 [A,,A,]2 [D,F,]2 [G,,G,]2 [E,G,]2 | [C,E,]2 [^G,,E,]2 [A,,A,]2 [E,G,]2 | %15
 [A,,A,]2 [D,F,]2 [G,,G,]2 [E,G,]2 | [C,E,]2 [^G,,E,]2 [A,,A,]4 | z2 [G,,B,]2 [D,A,]2 [E,G,]2 | %18
 [B,,F,]2 [^G,,E,]2 [A,,E,]2 [A,,E,]2 | [E,,E,]4 z2 [C,E,]2 | [C,F,]2 [B,,G,]2 [A,,E,]2 [A,,D,]2 | %21
 [G,,D,]4 z2 [G,B,]2 | [G,A,]2 [F,A,]2 [E,B,]2 [B,,G,]2 | G,A, B,2 ^C2 B,A, | [E,,^G,]4 z2 |] %25
V:3
 x2 | x8 | (D2 B,2 ^C2) D2 | x8 | x8 | C2 E4- E^D | x8 | x8 | (D2 B,2 ^C2) D2 | x8 | x8 | %11
w: ||you * * *|||vails * * *||||||
w: ||||||||pon * * *|||
w: ||||||||hear _ _ _|||
 C2 E4- E^D | x8 | x8 | x8 | x8 | x8 | x8 | x8 | x8 | (A,2 D2 C2) C2 | x8 | x8 | E4 (E2 ^D2) | %24
w: sails * * *|||||||||cry _ _ _|||* mise *|
w: |||||||||Son * * *||||
w: ||||||||||||* ly *|
 x6 |] %25
w: |
w: |
w: |
V:4
 x2 | x8 | x8 | x8 | x8 | A,,2 F,,2 G,,A,, B,,2 | x8 | x8 | x8 | x8 | x8 | A,,2 F,,2 G,,A,, B,,2 | %12
 x8 | x8 | x8 | x8 | x8 | x8 | x8 | x8 | x8 | x8 | x8 | ^C,2 B,,2 ^A,,2 B,,2 | x6 |] %25

